public/ICON/Home.svg

<svg xmlns="http://www.w3.org/2000/svg" width="400" height="400" viewBox="0 0 400 NaN" xmlns:v="https://vecta.io/nano"><path d="M186.2 7.819c-9.3.569-13.176 1.088-25.6 3.427-12.556 2.364-29.05 7.722-41.4 13.447-4.241 1.966-10.785 5.241-11.4 5.704-.22.166-1.66.983-3.2 1.815-4.697 2.537-3.514 1.821-10.8 6.534-4.012 2.595-14.45 10.163-15.2 11.021-.22.252-1.41 1.273-2.644 2.27C64.655 61.163 50.108 76.831 42.4 88.181l-2.2 3.134c-.22.267-.868 1.205-1.439 2.085l-2.6 4c-.858 1.32-1.755 2.76-1.993 3.2s-.962 1.7-1.607 2.8c-2.134 3.64-2.503 4.343-6.181 11.8-4.699 9.527-5.18 10.572-5.18 11.255 0 .312-.277.963-.616 1.447s-.867 1.649-1.174 2.589-1.387 4.049-2.402 6.909-2.075 6.111-2.357 7.225-.631 2.22-.778 2.457-.553 1.667-.903 3.175c-2.941 12.689-4.425 20.239-4.783 24.343-.134 1.54-.53 4.87-.878 7.4-.902 6.55-.897 29.781.009 36.8l.89 7.6c.281 2.971 1.253 8.263 3.196 17.4 1.532 7.204 5.244 19.368 7.933 26 3.255 8.025 4.253 10.261 7.316 16.4 3.905 7.827 6.133 11.947 6.847 12.66.275.275.5.676.5.891s.84 1.664 1.866 3.22l2.9 4.429c.569.88 1.214 1.81 1.434 2.067s1.21 1.662 2.2 3.122c1.755 2.588 4.969 6.818 8.2 10.791 4.391 5.399 14.081 15.397 20.595 21.248l2.6 2.392c.678.705 7.783 6.38 10.038 8.018l2.064 1.535c.558.425 2.115 1.511 3.459 2.413L93 361.454c3.437 2.372 6.904 4.546 7.249 4.546.215 0 .615.224.888.497 1.117 1.117 16.288 8.881 22.063 11.292l4 1.718c5.822 2.629 22.181 7.725 29.2 9.096l5.4 1.123c12.745 2.803 31.12 4.223 45.3 3.501 15.279-.778 25.541-2.273 39.7-5.784 4.172-1.035 12.07-3.413 14.8-4.456.77-.295 2.092-.747 2.939-1.005s2.016-.719 2.6-1.023 1.264-.555 1.513-.557 1.508-.466 2.8-1.034L274.6 378c6.946-2.916 21.092-10.267 25.379-13.189.561-.382 2.281-1.479 3.821-2.436s3.281-2.109 3.868-2.558 1.998-1.447 3.134-2.217c8.967-6.075 24.209-19.851 32.921-29.755 3.939-4.478 12.945-16.057 13.881-17.845.287-.55 1.079-1.754 1.759-2.676s1.957-2.872 2.837-4.335l2.657-4.325c3.117-4.91 10.069-18.897 12.506-25.161l3.813-10.103c.748-2.019 1.594-4.785 3.365-11 1.908-6.692 2.198-7.824 2.462-9.6.147-.99.508-2.7.801-3.8s.642-2.9.774-4 .588-4.07 1.012-6.6c2.663-15.898 2.723-39.403.142-55.2l-1.167-7.524c-.301-2.048-.649-3.888-.773-4.088s-.486-1.766-.804-3.477c-.527-2.829-1.147-5.212-3.36-12.911-1.618-5.629-3.087-10.123-3.857-11.8-.745-1.623-2.571-6.399-2.571-6.724 0-1.053-10.895-22.774-12.177-24.276-.281-.33-1.212-1.832-2.067-3.339-1.756-3.091-1.944-3.386-4.867-7.669-2.473-3.623-2.487-3.642-7.772-10.392-9.529-12.174-19.838-22.551-31.717-31.928l-4.95-3.936c-.303-.254-2.001-1.444-3.774-2.644s-3.446-2.387-3.718-2.637-1.698-1.175-3.168-2.055l-4.05-2.501c-5.457-3.567-17.408-9.647-25.74-13.094l-4.311-1.84c-.941-.421-1.931-.766-2.2-.767s-.939-.236-1.489-.521-2.89-1.11-5.2-1.833l-5.6-1.833c-.77-.284-2.84-.892-4.6-1.35-22.026-5.737-41.156-7.615-63.6-6.242m32.4 26.961c1.1.218 3.89.672 6.2 1.009a157.21 157.21 0 0 1 20.4 4.501c5.781 1.716 12.956 4.173 13.886 4.755.487.305 1.095.555 1.35.555 1.052 0 16.564 7.388 20.564 9.795l4.195 2.456C299.426 66.045 316.87 81.367 328.624 96c3.917 4.876 5.718 7.425 11.587 16.4 1.228 1.879 7.389 12.788 7.389 13.084 0 .188 1.901 4.233 4.026 8.566.175.358.886 2.158 1.579 4s1.507 3.89 1.808 4.55c.824 1.81 4.208 12.477 4.187 13.2-.006.22.344 1.57.779 3 .96 3.159 2.244 9.15 2.821 13.159.234 1.627.509 3.094.612 3.26 2.188 3.54 2.179 37.12-.013 49.981l-.811 5c-.318 2.206-1.732 8.899-2.24 10.6-.229.77-.75 2.66-1.157 4.2-1.318 4.989-2.234 7.981-2.718 8.874-.26.48-.473 1.203-.473 1.606s-.36 1.404-.8 2.224-.806 1.719-.814 1.995-.361 1.221-.786 2.101-.779 1.746-.786 1.925c-.015.355-1.237 3.074-3.656 8.136-.857 1.793-1.558 3.357-1.558 3.475 0 .282-6.209 11.259-7.389 13.064-5.289 8.088-5.897 8.949-11.534 16.329-4.904 6.42-16.703 18.33-24.677 24.91-4.317 3.561-17.952 13.161-18.695 13.161-.122 0-1.141.609-2.264 1.354-2.394 1.587-14.485 7.72-18.241 9.253-1.43.583-3.14 1.315-3.8 1.625-4.333 2.04-16.796 5.962-23.532 7.404-1.943.416-3.675.845-3.849.952s-2.163.473-4.419.812-4.274.722-4.484.852c-.42.26-8.488 1.084-17.516 1.789-8.58.67-25.977-.278-33.6-1.833l-6.4-1.206c-5.989-1.046-14.042-2.964-15.8-3.763-.44-.199-2.78-1.001-5.2-1.781-5.69-1.833-7.726-2.554-9.2-3.256-.66-.315-3.09-1.38-5.4-2.367s-5.28-2.364-6.6-3.06l-9.2-4.996-3-1.768c-2.095-1.226-2.773-1.669-5.069-3.311-1.153-.825-2.213-1.5-2.355-1.5-.367 0-7.612-5.523-12.54-9.558-4.285-3.51-14.075-12.938-17.501-16.854-5.808-6.64-9.148-10.91-13.248-16.939-3.831-5.634-4.582-6.846-8.428-13.598-1.689-2.966-5.543-10.784-6.828-13.851l-1.83-4.2c-.636-1.328-1.001-2.345-3.662-10.2-2.529-7.467-3.845-12.571-5.337-20.699-.414-2.254-.844-4.245-.955-4.425-.229-.37-1.33-10.144-1.857-16.476-.452-5.435-.453-16.7-.001-21.8.671-7.579 1.62-15.603 1.987-16.8.203-.66.476-2.01.608-3 .638-4.789 4.423-19.384 5.86-22.6.196-.44.616-1.61.932-2.6 1.049-3.286 2.139-6.274 2.569-7.042.233-.417.99-2.108 1.683-3.758 1.038-2.472 4.164-8.901 6.613-13.6 1.891-3.629 8.328-13.602 12.779-19.8C73.93 89.465 88.716 74.984 102 65.159c9.416-6.964 22.818-14.454 33.2-18.553 1.43-.564 2.941-1.219 3.358-1.456.801-.454 4.033-1.622 7.042-2.546a66.3 66.3 0 0 0 3.4-1.161c.88-.334 1.933-.616 2.34-.625s1.306-.282 2-.605c1.269-.59 3.75-1.203 10.567-2.61 2.039-.421 3.839-.846 4-.945s2.093-.388 4.293-.641 4.555-.634 5.232-.847c3.489-1.097 36.037-1.405 41.168-.39m-19.747 69.45c-2.587.696-6.599 3.848-14.475 11.37-.346.33-2.501 2.31-4.791 4.4l-6.98 6.4-7.198 6.6-10.012 9.2-8.054 7.4L132 163.638l-12.6 11.544L104.354 189l-6.574 5.999C86.889 204.847 86.2 205.847 86.2 211.8c0 11.817 13.516 17.477 22.2 9.297l9.619-8.865 10.944-10.045 3.051-2.8 6.6-6.046 5.186-4.748 3.4-3.156 6.597-6.052 5.034-4.585c.35-.33 2.332-2.144 4.403-4.03l16.538-15.156 7.289-6.672 4.364-4 4.773-4.342 4.421-4.1c.968-.998 3.139-1.226 3.661-.384.31.5 1.827 1.917 9.727 9.084l4.801 4.4c.58.55 2.836 2.62 5.013 4.6l16.379 15.028 3.946 3.624 12.869 11.748 5.221 4.8 4.154 3.8 4.81 4.4 4.801 4.4 10.033 9.262 9.566 8.711c6.33 5.859 13.3 6.519 19.053 1.805 6.874-5.633 6.006-14.572-2.14-22.048l-4.921-4.53-4.585-4.2-5.219-4.8-3.247-2.992-3.955-3.6-6.578-6.008c-2.29-2.09-5.029-4.673-6.086-5.741l-1.922-1.94v-28.727l-.243-29.359c-.398-1.037-20.151-.945-21.095.098-.595.658-.662 2.549-.662 18.8 0 16.467-.058 18.069-.655 18.069-.726 0-2.366-1.43-15.145-13.207l-12.782-11.752-4.622-4.241c-12.758-11.97-15.134-13.201-21.943-11.37m1.661 48.252c-.833.705-2.687 2.37-4.121 3.7L184.201 167.4l-9.803 9-14.385 13.184-4.821 4.416c-.348.33-2.507 2.31-4.797 4.4L131.9 215.519l-2.7 2.604v45.724c0 44.797.016 45.733.774 46.139 1.175.629 40.914.566 41.546-.066.363-.363.48-6.637.48-25.786 0-24.61.021-25.317.774-25.72 1.029-.551 57.954-.574 59.4-.024l1.026.39v25.33c0 19.168.117 25.447.48 25.81.692.692 41.148.692 41.84 0 .368-.368.48-11.153.48-46.11v-45.63l-2.9-2.828c-1.595-1.555-8.66-8.105-15.7-14.555l-16.8-15.4-14.4-13.207-12.568-11.562-6.893-6.328c-3.886-3.511-4.139-3.585-6.225-1.818" fill="#01a99e" fill-rule="evenodd"/></svg>

<svg id="svg" version="1.1" xmlns="http://www.w3.org/2000/svg" xmlns:xlink="http://www.w3.org/1999/xlink" width="400" height="400" viewBox="0, 0, 400,400"><g id="svgg"><path id="path0" d="M186.200 7.819 C 176.900 8.388,173.024 8.907,160.600 11.246 C 148.044 13.610,131.550 18.968,119.200 24.693 C 114.959 26.659,108.415 29.934,107.800 30.397 C 107.580 30.563,106.140 31.380,104.600 32.212 C 99.903 34.749,101.086 34.033,93.800 38.746 C 89.788 41.341,79.350 48.909,78.600 49.767 C 78.380 50.019,77.190 51.040,75.956 52.037 C 64.655 61.163,50.108 76.831,42.400 88.181 C 41.410 89.638,40.420 91.049,40.200 91.315 C 39.980 91.582,39.332 92.520,38.761 93.400 C 38.189 94.280,37.019 96.080,36.161 97.400 C 35.303 98.720,34.406 100.160,34.168 100.600 C 33.929 101.040,33.206 102.300,32.561 103.400 C 30.427 107.040,30.058 107.743,26.380 115.200 C 21.681 124.727,21.200 125.772,21.200 126.455 C 21.200 126.767,20.923 127.418,20.584 127.902 C 20.244 128.386,19.717 129.551,19.410 130.491 C 19.104 131.431,18.023 134.540,17.008 137.400 C 15.993 140.260,14.933 143.511,14.651 144.625 C 14.370 145.739,14.020 146.845,13.873 147.082 C 13.726 147.320,13.320 148.749,12.970 150.257 C 10.029 162.946,8.545 170.496,8.187 174.600 C 8.053 176.140,7.657 179.470,7.309 182.000 C 6.407 188.550,6.412 211.781,7.318 218.800 C 7.672 221.550,8.073 224.970,8.208 226.400 C 8.489 229.371,9.461 234.663,11.404 243.800 C 12.936 251.004,16.648 263.168,19.337 269.800 C 22.592 277.825,23.590 280.061,26.653 286.200 C 30.558 294.027,32.786 298.147,33.500 298.860 C 33.775 299.135,34.000 299.536,34.000 299.751 C 34.000 299.966,34.840 301.415,35.866 302.971 C 36.892 304.527,38.197 306.520,38.766 307.400 C 39.335 308.280,39.980 309.210,40.200 309.467 C 40.420 309.724,41.410 311.129,42.400 312.589 C 44.155 315.177,47.369 319.407,50.600 323.380 C 54.991 328.779,64.681 338.777,71.195 344.628 C 72.403 345.713,73.573 346.789,73.795 347.020 C 74.473 347.725,81.578 353.400,83.833 355.038 C 84.410 355.457,85.339 356.148,85.897 356.573 C 86.455 356.998,88.012 358.084,89.356 358.986 C 90.700 359.888,92.340 360.999,93.000 361.454 C 96.437 363.826,99.904 366.000,100.249 366.000 C 100.464 366.000,100.864 366.224,101.137 366.497 C 102.254 367.614,117.425 375.378,123.200 377.789 C 124.630 378.386,126.430 379.159,127.200 379.507 C 133.022 382.136,149.381 387.232,156.400 388.603 C 157.830 388.882,160.260 389.388,161.800 389.726 C 174.545 392.529,192.920 393.949,207.100 393.227 C 222.379 392.449,232.641 390.954,246.800 387.443 C 250.972 386.408,258.870 384.030,261.600 382.987 C 262.370 382.692,263.692 382.240,264.539 381.982 C 265.385 381.724,266.555 381.263,267.139 380.959 C 267.722 380.654,268.403 380.404,268.652 380.402 C 268.900 380.401,270.160 379.936,271.452 379.368 C 272.743 378.801,274.160 378.185,274.600 378.000 C 281.546 375.084,295.692 367.733,299.979 364.811 C 300.540 364.429,302.260 363.332,303.800 362.375 C 305.340 361.417,307.081 360.266,307.668 359.817 C 308.255 359.368,309.666 358.370,310.802 357.600 C 319.769 351.525,335.011 337.749,343.723 327.845 C 347.662 323.367,356.668 311.788,357.604 310.000 C 357.891 309.450,358.683 308.246,359.363 307.324 C 360.043 306.403,361.320 304.452,362.200 302.989 C 363.080 301.526,364.275 299.580,364.857 298.664 C 367.974 293.754,374.926 279.767,377.363 273.503 C 378.374 270.904,379.615 267.616,381.176 263.400 C 381.924 261.381,382.770 258.615,384.541 252.400 C 386.449 245.708,386.739 244.576,387.003 242.800 C 387.150 241.810,387.511 240.100,387.804 239.000 C 388.097 237.900,388.446 236.100,388.578 235.000 C 388.711 233.900,389.166 230.930,389.590 228.400 C 392.253 212.502,392.313 188.997,389.732 173.200 C 389.391 171.110,388.866 167.724,388.565 165.676 C 388.264 163.628,387.916 161.788,387.792 161.588 C 387.668 161.387,387.306 159.822,386.988 158.111 C 386.461 155.282,385.841 152.899,383.628 145.200 C 382.010 139.571,380.541 135.077,379.771 133.400 C 379.026 131.777,377.200 127.001,377.200 126.676 C 377.200 125.623,366.305 103.902,365.023 102.400 C 364.742 102.070,363.811 100.568,362.956 99.061 C 361.200 95.970,361.012 95.675,358.089 91.392 C 355.616 87.769,355.602 87.750,350.317 81.000 C 340.788 68.826,330.479 58.449,318.600 49.072 C 316.180 47.161,313.952 45.391,313.650 45.136 C 313.347 44.882,311.649 43.692,309.876 42.492 C 308.103 41.292,306.430 40.105,306.158 39.855 C 305.885 39.605,304.460 38.680,302.990 37.800 C 301.520 36.920,299.698 35.795,298.940 35.299 C 293.483 31.732,281.532 25.652,273.200 22.205 C 271.770 21.614,269.830 20.786,268.889 20.365 C 267.948 19.944,266.958 19.599,266.689 19.598 C 266.420 19.596,265.750 19.362,265.200 19.077 C 264.650 18.792,262.310 17.967,260.000 17.244 C 257.690 16.520,255.170 15.696,254.400 15.411 C 253.630 15.127,251.560 14.519,249.800 14.061 C 227.774 8.324,208.644 6.446,186.200 7.819 M218.600 34.780 C 219.700 34.998,222.490 35.452,224.800 35.789 C 231.178 36.722,238.961 38.439,245.200 40.290 C 250.981 42.006,258.156 44.463,259.086 45.045 C 259.573 45.350,260.181 45.600,260.436 45.600 C 261.488 45.600,277.000 52.988,281.000 55.395 C 281.880 55.924,283.768 57.030,285.195 57.851 C 299.426 66.045,316.870 81.367,328.624 96.000 C 332.541 100.876,334.342 103.425,340.211 112.400 C 341.439 114.279,347.600 125.188,347.600 125.484 C 347.600 125.672,349.501 129.717,351.626 134.050 C 351.801 134.408,352.512 136.208,353.205 138.050 C 353.899 139.893,354.712 141.940,355.013 142.600 C 355.837 144.410,359.221 155.077,359.200 155.800 C 359.194 156.020,359.544 157.370,359.979 158.800 C 360.939 161.959,362.223 167.950,362.800 171.959 C 363.034 173.586,363.309 175.053,363.412 175.219 C 365.600 178.759,365.591 212.339,363.399 225.200 C 363.080 227.070,362.715 229.320,362.588 230.200 C 362.270 232.406,360.856 239.099,360.348 240.800 C 360.119 241.570,359.598 243.460,359.191 245.000 C 357.873 249.989,356.957 252.981,356.473 253.874 C 356.213 254.354,356.000 255.077,356.000 255.480 C 356.000 255.882,355.640 256.884,355.200 257.704 C 354.760 258.525,354.394 259.423,354.386 259.699 C 354.379 259.974,354.025 260.920,353.600 261.800 C 353.175 262.680,352.821 263.546,352.814 263.725 C 352.799 264.080,351.577 266.799,349.158 271.861 C 348.301 273.654,347.600 275.218,347.600 275.336 C 347.600 275.618,341.391 286.595,340.211 288.400 C 334.922 296.488,334.314 297.349,328.677 304.729 C 323.773 311.149,311.974 323.059,304.000 329.639 C 299.683 333.200,286.048 342.800,285.305 342.800 C 285.183 342.800,284.164 343.409,283.041 344.154 C 280.647 345.741,268.556 351.874,264.800 353.407 C 263.370 353.990,261.660 354.722,261.000 355.032 C 256.667 357.072,244.204 360.994,237.468 362.436 C 235.525 362.852,233.793 363.281,233.619 363.388 C 233.445 363.496,231.456 363.861,229.200 364.200 C 226.944 364.539,224.926 364.922,224.716 365.052 C 224.296 365.312,216.228 366.136,207.200 366.841 C 198.620 367.511,181.223 366.563,173.600 365.008 C 171.950 364.672,169.070 364.129,167.200 363.802 C 161.211 362.756,153.158 360.838,151.400 360.039 C 150.960 359.840,148.620 359.038,146.200 358.258 C 140.510 356.425,138.474 355.704,137.000 355.002 C 136.340 354.687,133.910 353.622,131.600 352.635 C 129.290 351.648,126.320 350.271,125.000 349.575 C 120.061 346.970,117.354 345.500,115.800 344.579 C 114.920 344.057,113.570 343.261,112.800 342.811 C 110.705 341.585,110.027 341.142,107.731 339.500 C 106.578 338.675,105.518 338.000,105.376 338.000 C 105.009 338.000,97.764 332.477,92.836 328.442 C 88.551 324.932,78.761 315.504,75.335 311.588 C 69.527 304.948,66.187 300.678,62.087 294.649 C 58.256 289.015,57.505 287.803,53.659 281.051 C 51.970 278.085,48.116 270.267,46.831 267.200 C 46.140 265.550,45.317 263.660,45.001 263.000 C 44.365 261.672,44.000 260.655,41.339 252.800 C 38.810 245.333,37.494 240.229,36.002 232.101 C 35.588 229.847,35.158 227.856,35.047 227.676 C 34.818 227.306,33.717 217.532,33.190 211.200 C 32.738 205.765,32.737 194.500,33.189 189.400 C 33.860 181.821,34.809 173.797,35.176 172.600 C 35.379 171.940,35.652 170.590,35.784 169.600 C 36.422 164.811,40.207 150.216,41.644 147.000 C 41.840 146.560,42.260 145.390,42.576 144.400 C 43.625 141.114,44.715 138.126,45.145 137.358 C 45.378 136.941,46.135 135.250,46.828 133.600 C 47.866 131.128,50.992 124.699,53.441 120.000 C 55.332 116.371,61.769 106.398,66.220 100.200 C 73.930 89.465,88.716 74.984,102.000 65.159 C 111.416 58.195,124.818 50.705,135.200 46.606 C 136.630 46.042,138.141 45.387,138.558 45.150 C 139.359 44.696,142.591 43.528,145.600 42.604 C 146.590 42.300,148.120 41.778,149.000 41.443 C 149.880 41.109,150.933 40.827,151.340 40.818 C 151.746 40.808,152.646 40.536,153.340 40.213 C 154.609 39.623,157.090 39.010,163.907 37.603 C 165.946 37.182,167.746 36.757,167.907 36.658 C 168.068 36.558,170.000 36.270,172.200 36.017 C 174.400 35.764,176.755 35.383,177.432 35.170 C 180.921 34.073,213.469 33.765,218.600 34.780 M198.853 104.230 C 196.266 104.926,192.254 108.078,184.378 115.600 C 184.032 115.930,181.877 117.910,179.587 120.000 C 177.298 122.090,174.157 124.970,172.607 126.400 C 171.057 127.830,167.818 130.800,165.409 133.000 C 163.000 135.200,158.494 139.340,155.397 142.200 C 152.299 145.060,148.675 148.390,147.343 149.600 C 144.272 152.390,138.406 157.757,132.000 163.638 C 129.250 166.163,123.580 171.357,119.400 175.182 C 111.115 182.763,108.305 185.343,104.354 189.000 C 102.928 190.320,99.970 193.020,97.780 194.999 C 86.889 204.847,86.200 205.847,86.200 211.800 C 86.200 223.617,99.716 229.277,108.400 221.097 C 109.750 219.825,113.382 216.478,118.019 212.232 C 123.344 207.355,128.560 202.568,128.963 202.187 C 129.203 201.961,130.576 200.701,132.014 199.387 C 133.452 198.074,136.422 195.353,138.614 193.341 C 140.806 191.328,143.140 189.192,143.800 188.593 C 144.460 187.995,145.990 186.575,147.200 185.437 C 148.410 184.300,151.379 181.576,153.797 179.385 C 156.215 177.193,158.481 175.130,158.831 174.800 C 159.181 174.470,161.163 172.656,163.234 170.770 C 166.594 167.710,174.315 160.634,179.772 155.614 C 183.162 152.496,183.837 151.878,187.061 148.942 C 188.788 147.370,190.751 145.570,191.425 144.942 C 192.099 144.314,194.247 142.360,196.198 140.600 C 198.150 138.840,200.139 136.995,200.619 136.500 C 201.587 135.502,203.758 135.274,204.280 136.116 C 204.590 136.616,206.107 138.033,214.007 145.200 C 216.068 147.070,218.229 149.050,218.808 149.600 C 219.388 150.150,221.644 152.220,223.821 154.200 C 229.550 159.410,237.883 167.055,240.200 169.228 C 241.300 170.260,243.076 171.890,244.146 172.852 C 247.597 175.952,254.520 182.273,257.015 184.600 C 257.958 185.480,260.308 187.640,262.236 189.400 C 264.165 191.160,266.034 192.870,266.390 193.200 C 266.746 193.530,268.911 195.510,271.200 197.600 C 273.489 199.690,275.650 201.670,276.001 202.000 C 277.066 203.001,284.928 210.258,286.034 211.262 C 291.068 215.829,294.424 218.885,295.600 219.973 C 301.930 225.832,308.900 226.492,314.653 221.778 C 321.527 216.145,320.659 207.206,312.513 199.730 C 310.397 197.788,308.183 195.750,307.592 195.200 C 307.002 194.650,304.938 192.760,303.007 191.000 C 301.075 189.240,298.727 187.080,297.788 186.200 C 296.850 185.320,295.388 183.973,294.541 183.208 C 293.693 182.442,291.914 180.822,290.586 179.608 C 289.258 178.393,286.298 175.690,284.008 173.600 C 281.718 171.510,278.979 168.927,277.922 167.859 L 276.000 165.919 276.000 137.192 C 276.000 121.392,275.891 108.181,275.757 107.833 C 275.359 106.796,255.606 106.888,254.662 107.931 C 254.067 108.589,254.000 110.480,254.000 126.731 C 254.000 143.198,253.942 144.800,253.345 144.800 C 252.619 144.800,250.979 143.370,238.200 131.593 C 233.360 127.132,227.608 121.844,225.418 119.841 C 223.227 117.839,221.148 115.930,220.796 115.600 C 208.038 103.630,205.662 102.399,198.853 104.230 M200.514 152.482 C 199.681 153.187,197.827 154.852,196.393 156.182 C 193.460 158.902,190.557 161.574,184.201 167.400 C 181.801 169.600,177.389 173.650,174.398 176.400 C 165.820 184.285,164.462 185.529,160.013 189.584 C 157.710 191.683,155.540 193.670,155.192 194.000 C 154.844 194.330,152.685 196.310,150.395 198.400 C 142.464 205.637,134.588 212.927,131.900 215.519 L 129.200 218.123 129.200 263.847 C 129.200 308.644,129.216 309.580,129.974 309.986 C 131.149 310.615,170.888 310.552,171.520 309.920 C 171.883 309.557,172.000 303.283,172.000 284.134 C 172.000 259.524,172.021 258.817,172.774 258.414 C 173.803 257.863,230.728 257.840,232.174 258.390 L 233.200 258.780 233.200 284.110 C 233.200 303.278,233.317 309.557,233.680 309.920 C 234.372 310.612,274.828 310.612,275.520 309.920 C 275.888 309.552,276.000 298.767,276.000 263.810 L 276.000 218.180 273.100 215.352 C 271.505 213.797,264.440 207.247,257.400 200.797 C 250.360 194.347,242.800 187.417,240.600 185.397 C 238.400 183.377,231.920 177.434,226.200 172.190 C 220.480 166.946,214.825 161.743,213.632 160.628 C 210.503 157.701,210.496 157.695,206.739 154.300 C 202.853 150.789,202.600 150.715,200.514 152.482 " stroke="none" fill="#01a99e" fill-rule="evenodd"></path></g></svg>
